X:2
T:5. Ronde
T:Wo bistu
C:Tielman Susato
S:Tileman Susato: Danserye (1551)
R:Ronde
M:4/2
L:1/2
T: Altus
K:F -8va
cc/2c/2ed|fffe|fe/2f/2gd/2e/2|f2f2|ff/2f/2f>e|
ddc>F|Gcc2|A2A2|ff/2f/2f>e|ddc>F|
Gcc2|A2A2::ff/2f/2dB|c2A2|ff/2f/2dB|c2A2:|
